components/AppDevelopmentCommon/Svg/svgs/titledNode.svg

<svg width="208" height="127" viewBox="0 0 208 127" fill="none" xmlns="http://www.w3.org/2000/svg">
<path d="M191.362 21C190.856 21 190.365 21.1046 189.93 21.3512L176.163 29.3141C175.272 29.8284 174.73 30.7993 174.73 31.8324V47.7294C174.73 48.7617 175.272 49.7314 176.163 50.2469L179.758 52.3257C181.505 53.188 182.149 53.1745 182.944 53.1745C185.53 53.1745 187.007 51.6027 187.007 48.8712V33.1788C187.007 32.9571 186.815 32.7984 186.598 32.7984H184.873C184.652 32.7984 184.464 32.9571 184.464 33.1788V48.8712C184.464 50.0817 183.205 51.2995 181.161 50.2762L177.42 48.0806C177.287 48.0086 177.186 47.8812 177.186 47.7294V31.832C177.186 31.6814 177.286 31.528 177.42 31.4515L191.157 23.5183C191.219 23.482 191.29 23.4628 191.362 23.4628C191.434 23.4628 191.504 23.482 191.566 23.5183L205.305 31.452C205.435 31.5309 205.538 31.677 205.538 31.8328V47.7298C205.538 47.8816 205.462 48.0371 205.334 48.1103L191.566 56.044C191.449 56.1144 191.286 56.1144 191.157 56.044L187.621 53.9362C187.567 53.907 187.507 53.8917 187.445 53.8917C187.384 53.8917 187.324 53.907 187.27 53.9362C186.294 54.4904 186.11 54.5547 185.195 54.8729C184.969 54.9519 184.627 55.0743 185.312 55.4588L189.93 58.181C190.365 58.4326 190.859 58.564 191.362 58.5618C191.865 58.565 192.359 58.4336 192.794 58.1814L206.561 50.2473C207.452 49.7285 207.993 48.7621 207.993 47.7298V31.8324C207.993 30.7997 207.452 29.8305 206.561 29.3149L192.794 21.352C192.363 21.105 191.868 21.0004 191.362 21.0004L191.362 21Z" fill="#A3A3A3"/>
<path d="M195.043 32.3591C191.123 32.3591 188.788 34.0303 188.788 36.8094C188.788 39.8236 191.105 40.6521 194.868 41.0248C199.369 41.4663 199.72 42.1283 199.72 43.0157C199.72 44.555 198.494 45.2114 195.599 45.2114C191.96 45.2114 191.16 44.3015 190.893 42.4888C190.861 42.2943 190.711 42.1373 190.512 42.1373H188.729C188.51 42.1373 188.32 42.3269 188.32 42.5474C188.32 44.8679 189.58 47.612 195.599 47.612C199.955 47.612 202.467 45.8994 202.467 42.8986C202.467 39.9241 200.438 39.1254 196.212 38.5659C191.942 37.9999 191.535 37.7228 191.535 36.7215C191.535 35.8947 191.881 34.7887 195.043 34.7887C197.868 34.7887 198.912 35.3991 199.34 37.307C199.377 37.486 199.535 37.6288 199.72 37.6288H201.503C201.613 37.6288 201.719 37.5613 201.795 37.4824C201.87 37.3981 201.923 37.3033 201.912 37.1898C201.636 33.9045 199.449 32.3591 195.043 32.3591Z" fill="#A3A3A3"/>
<path d="M110.426 0.155585C110.272 0.155687 110.12 0.195934 109.987 0.272364C109.854 0.350191 109.744 0.461327 109.667 0.594822C109.59 0.728317 109.549 0.879566 109.548 1.03367V23.4301C109.548 23.6498 109.447 23.8467 109.256 23.957C109.163 24.0114 109.057 24.04 108.949 24.04C108.842 24.04 108.736 24.0114 108.643 23.957L104.989 21.8493C104.722 21.6948 104.42 21.6135 104.112 21.6135C103.804 21.6135 103.502 21.6948 103.235 21.8493L88.6496 30.2806C88.1044 30.5959 87.7729 31.2018 87.7729 31.8325V48.6955C87.7729 49.3254 88.1048 49.9023 88.6496 50.2177L103.235 58.6494C103.501 58.8043 103.804 58.8858 104.112 58.8858C104.42 58.8858 104.722 58.8043 104.989 58.6494L119.574 50.2177C119.841 50.0638 120.063 49.8419 120.217 49.5746C120.371 49.3074 120.452 49.0041 120.451 48.6955V6.65494C120.451 6.33911 120.367 6.02904 120.208 5.7564C120.049 5.48375 119.82 5.25829 119.545 5.10304L110.864 0.243067C110.728 0.166978 110.577 0.15355 110.426 0.155585ZM16.5991 21.2052C16.3212 21.2161 16.0596 21.265 15.8102 21.4098L1.22434 29.8415C0.957159 29.9953 0.735331 30.2171 0.581364 30.4844C0.427397 30.7517 0.34677 31.0551 0.347664 31.3637L0.376913 53.9949C0.376913 54.3094 0.539005 54.602 0.815252 54.7558C0.947692 54.8355 1.09929 54.8776 1.25379 54.8776C1.4083 54.8776 1.5599 54.8355 1.69234 54.7558L10.3441 49.7791C10.8922 49.4527 11.2501 48.8855 11.2501 48.2565V37.6877C11.2501 37.057 11.5812 36.4784 12.1272 36.1651L15.8098 34.0281C16.076 33.873 16.3789 33.7921 16.6869 33.7937C16.9875 33.7937 17.2962 33.869 17.5635 34.0281L21.2466 36.1651C21.514 36.3187 21.736 36.5405 21.8901 36.808C22.0441 37.0754 22.1247 37.379 22.1236 37.6877V48.256C22.1236 48.8851 22.4852 49.4564 23.0296 49.7786L31.6814 54.7558C31.8138 54.8355 31.9654 54.8776 32.1199 54.8776C32.2744 54.8776 32.426 54.8355 32.5585 54.7558C32.6918 54.6785 32.8025 54.5675 32.8795 54.4339C32.9565 54.3003 32.9971 54.1488 32.9972 53.9945L33.0256 31.3637C33.0274 31.0549 32.9471 30.7512 32.7931 30.4838C32.639 30.2163 32.4167 29.9946 32.149 29.8415L17.5635 21.4098C17.3169 21.265 17.0545 21.2166 16.7746 21.2052H16.5991ZM147.664 21.4098C147.359 21.4098 147.06 21.4871 146.787 21.6442L132.202 30.0759C131.934 30.2298 131.713 30.4516 131.559 30.7189C131.405 30.9862 131.324 31.2895 131.324 31.5981V48.4611C131.324 49.0955 131.681 49.67 132.23 49.9837L146.699 58.2397C147.233 58.5448 147.886 58.568 148.424 58.2681L157.193 53.3793C157.471 53.2247 157.659 52.9358 157.66 52.6184C157.662 52.4638 157.622 52.3117 157.545 52.1778C157.468 52.0439 157.356 51.9332 157.222 51.8571L142.549 43.4254C142.274 43.2683 142.081 42.9505 142.081 42.6348V37.3655C142.081 37.0501 142.276 36.7612 142.549 36.6042L147.108 33.9691C147.242 33.8918 147.393 33.8511 147.547 33.8511C147.701 33.8511 147.852 33.8918 147.985 33.9691L152.545 36.6042C152.678 36.681 152.789 36.7919 152.866 36.9255C152.943 37.0591 152.984 37.2108 152.983 37.3651V41.5223C152.983 41.6766 153.023 41.8282 153.1 41.9619C153.177 42.0955 153.288 42.2064 153.422 42.2832C153.695 42.4415 154.026 42.4419 154.298 42.2832L163.038 37.1901C163.305 37.0356 163.526 36.8136 163.68 36.5463C163.834 36.2791 163.915 35.976 163.915 35.6675V31.5985C163.915 30.9699 163.582 30.3917 163.038 30.0759L148.541 21.6442C148.274 21.4898 147.972 21.409 147.664 21.4102V21.4098ZM104.053 33.9988C104.13 33.9988 104.219 34.0175 104.287 34.057L109.286 36.9553C109.421 37.0338 109.52 37.1791 109.52 37.3358V43.1324C109.52 43.2899 109.422 43.4347 109.286 43.5133L104.287 46.4116C104.22 46.4498 104.145 46.4698 104.068 46.4698C103.991 46.4698 103.916 46.4498 103.849 46.4116L98.8508 43.5133C98.7147 43.4343 98.6168 43.2899 98.6168 43.1324V37.3358C98.6168 37.1787 98.7151 37.0346 98.8508 36.9553L103.849 34.0574C103.91 34.0191 103.981 33.9989 104.054 33.9992V33.9988H104.053Z" fill="#404137"/>
<path d="M60.4134 21.3223C60.1095 21.3223 59.8089 21.3996 59.5367 21.5566L44.9513 29.9591C44.4057 30.2736 44.0742 30.8807 44.0742 31.5106V48.3736C44.0742 49.0043 44.4061 49.5804 44.9513 49.8962L59.5367 58.3275C59.8031 58.4824 60.1056 58.5641 60.4136 58.5641C60.7216 58.5641 61.0242 58.4824 61.2905 58.3275L75.8759 49.8962C76.1429 49.7421 76.3646 49.5202 76.5186 49.2529C76.6725 48.9855 76.7532 48.6822 76.7526 48.3736V31.5106C76.7526 30.8799 76.4211 30.2736 75.8759 29.9591L61.2905 21.5566C61.0239 21.4024 60.7213 21.3216 60.4134 21.3223ZM147.634 36.3705C147.576 36.3705 147.511 36.3705 147.459 36.3998L144.653 38.0392C144.601 38.0683 144.557 38.1107 144.526 38.1621C144.495 38.2136 144.478 38.2722 144.477 38.3322V41.5524C144.477 41.6736 144.547 41.7847 144.653 41.8453L147.459 43.4554C147.564 43.5164 147.676 43.5164 147.78 43.4554L150.586 41.8449C150.638 41.8156 150.682 41.7733 150.713 41.722C150.743 41.6706 150.76 41.6122 150.762 41.5524V38.3318C150.76 38.2719 150.743 38.2135 150.713 38.1622C150.682 38.1109 150.638 38.0685 150.586 38.0392L147.78 36.3994C147.728 36.3689 147.692 36.3709 147.634 36.3709V36.3705Z" fill="#A3A3A3"/>
<path d="M82.25 117H80.612L74.024 107.01V117H72.386V104.436H74.024L80.612 114.408V104.436H82.25V117ZM89.3443 117.162C88.4203 117.162 87.5803 116.952 86.8243 116.532C86.0803 116.112 85.4923 115.518 85.0603 114.75C84.6403 113.97 84.4303 113.07 84.4303 112.05C84.4303 111.042 84.6463 110.154 85.0783 109.386C85.5223 108.606 86.1223 108.012 86.8783 107.604C87.6343 107.184 88.4803 106.974 89.4163 106.974C90.3523 106.974 91.1983 107.184 91.9543 107.604C92.7103 108.012 93.3043 108.6 93.7363 109.368C94.1803 110.136 94.4023 111.03 94.4023 112.05C94.4023 113.07 94.1743 113.97 93.7183 114.75C93.2743 115.518 92.6683 116.112 91.9003 116.532C91.1323 116.952 90.2803 117.162 89.3443 117.162ZM89.3443 115.722C89.9323 115.722 90.4843 115.584 91.0003 115.308C91.5163 115.032 91.9303 114.618 92.2423 114.066C92.5663 113.514 92.7283 112.842 92.7283 112.05C92.7283 111.258 92.5723 110.586 92.2603 110.034C91.9483 109.482 91.5403 109.074 91.0363 108.81C90.5323 108.534 89.9863 108.396 89.3983 108.396C88.7983 108.396 88.2463 108.534 87.7423 108.81C87.2503 109.074 86.8543 109.482 86.5543 110.034C86.2543 110.586 86.1043 111.258 86.1043 112.05C86.1043 112.854 86.2483 113.532 86.5363 114.084C86.8363 114.636 87.2323 115.05 87.7243 115.326C88.2163 115.59 88.7563 115.722 89.3443 115.722ZM95.9439 112.032C95.9439 111.024 96.1479 110.142 96.5559 109.386C96.9639 108.618 97.5219 108.024 98.2299 107.604C98.9499 107.184 99.7539 106.974 100.642 106.974C101.41 106.974 102.124 107.154 102.784 107.514C103.444 107.862 103.948 108.324 104.296 108.9V103.68H105.952V117H104.296V115.146C103.972 115.734 103.492 116.22 102.856 116.604C102.22 116.976 101.476 117.162 100.624 117.162C99.7479 117.162 98.9499 116.946 98.2299 116.514C97.5219 116.082 96.9639 115.476 96.5559 114.696C96.1479 113.916 95.9439 113.028 95.9439 112.032ZM104.296 112.05C104.296 111.306 104.146 110.658 103.846 110.106C103.546 109.554 103.138 109.134 102.622 108.846C102.118 108.546 101.56 108.396 100.948 108.396C100.336 108.396 99.7779 108.54 99.2739 108.828C98.7699 109.116 98.3679 109.536 98.0679 110.088C97.7679 110.64 97.6179 111.288 97.6179 112.032C97.6179 112.788 97.7679 113.448 98.0679 114.012C98.3679 114.564 98.7699 114.99 99.2739 115.29C99.7779 115.578 100.336 115.722 100.948 115.722C101.56 115.722 102.118 115.578 102.622 115.29C103.138 114.99 103.546 114.564 103.846 114.012C104.146 113.448 104.296 112.794 104.296 112.05ZM117.72 111.69C117.72 112.002 117.702 112.332 117.666 112.68H109.782C109.842 113.652 110.172 114.414 110.772 114.966C111.384 115.506 112.122 115.776 112.986 115.776C113.694 115.776 114.282 115.614 114.75 115.29C115.23 114.954 115.566 114.51 115.758 113.958H117.522C117.258 114.906 116.73 115.68 115.938 116.28C115.146 116.868 114.162 117.162 112.986 117.162C112.05 117.162 111.21 116.952 110.466 116.532C109.734 116.112 109.158 115.518 108.738 114.75C108.318 113.97 108.108 113.07 108.108 112.05C108.108 111.03 108.312 110.136 108.72 109.368C109.128 108.6 109.698 108.012 110.43 107.604C111.174 107.184 112.026 106.974 112.986 106.974C113.922 106.974 114.75 107.178 115.47 107.586C116.19 107.994 116.742 108.558 117.126 109.278C117.522 109.986 117.72 110.79 117.72 111.69ZM116.028 111.348C116.028 110.724 115.89 110.19 115.614 109.746C115.338 109.29 114.96 108.948 114.48 108.72C114.012 108.48 113.49 108.36 112.914 108.36C112.086 108.36 111.378 108.624 110.79 109.152C110.214 109.68 109.884 110.412 109.8 111.348H116.028ZM120.404 117.108C120.092 117.108 119.828 117 119.612 116.784C119.396 116.568 119.288 116.304 119.288 115.992C119.288 115.68 119.396 115.416 119.612 115.2C119.828 114.984 120.092 114.876 120.404 114.876C120.704 114.876 120.956 114.984 121.16 115.2C121.376 115.416 121.484 115.68 121.484 115.992C121.484 116.304 121.376 116.568 121.16 116.784C120.956 117 120.704 117.108 120.404 117.108ZM124.543 105.534C124.231 105.534 123.967 105.426 123.751 105.21C123.547 104.994 123.445 104.73 123.445 104.418C123.445 104.106 123.547 103.842 123.751 103.626C123.967 103.41 124.231 103.302 124.543 103.302C124.855 103.302 125.113 103.41 125.317 103.626C125.533 103.842 125.641 104.106 125.641 104.418C125.641 104.73 125.533 104.994 125.317 105.21C125.113 105.426 124.855 105.534 124.543 105.534ZM125.353 119.142C125.353 120.018 125.131 120.66 124.687 121.068C124.243 121.476 123.595 121.68 122.743 121.68H121.789V120.294H122.473C122.929 120.294 123.247 120.204 123.427 120.024C123.619 119.844 123.715 119.538 123.715 119.106V107.136H125.353V119.142ZM131.618 117.162C130.862 117.162 130.184 117.036 129.584 116.784C128.984 116.52 128.51 116.16 128.162 115.704C127.814 115.236 127.622 114.702 127.586 114.102H129.278C129.326 114.594 129.554 114.996 129.962 115.308C130.382 115.62 130.928 115.776 131.6 115.776C132.224 115.776 132.716 115.638 133.076 115.362C133.436 115.086 133.616 114.738 133.616 114.318C133.616 113.886 133.424 113.568 133.04 113.364C132.656 113.148 132.062 112.938 131.258 112.734C130.526 112.542 129.926 112.35 129.458 112.158C129.002 111.954 128.606 111.66 128.27 111.276C127.946 110.88 127.784 110.364 127.784 109.728C127.784 109.224 127.934 108.762 128.234 108.342C128.534 107.922 128.96 107.592 129.512 107.352C130.064 107.1 130.694 106.974 131.402 106.974C132.494 106.974 133.376 107.25 134.048 107.802C134.72 108.354 135.08 109.11 135.128 110.07H133.49C133.454 109.554 133.244 109.14 132.86 108.828C132.488 108.516 131.984 108.36 131.348 108.36C130.76 108.36 130.292 108.486 129.944 108.738C129.596 108.99 129.422 109.32 129.422 109.728C129.422 110.052 129.524 110.322 129.728 110.538C129.944 110.742 130.208 110.91 130.52 111.042C130.844 111.162 131.288 111.3 131.852 111.456C132.56 111.648 133.136 111.84 133.58 112.032C134.024 112.212 134.402 112.488 134.714 112.86C135.038 113.232 135.206 113.718 135.218 114.318C135.218 114.858 135.068 115.344 134.768 115.776C134.468 116.208 134.042 116.55 133.49 116.802C132.95 117.042 132.326 117.162 131.618 117.162Z" fill="#A0A0A0"/>
</svg>

<svg xmlns="http://www.w3.org/2000/svg" width="208" height="127" fill="none">
  <path fill="#A3A3A3" d="M191.362 21c-.506 0-.997.105-1.432.351l-13.767 7.963a2.908 2.908 0 0 0-1.433 2.518V47.73c0 1.033.542 2.002 1.433 2.518l3.595 2.079c1.747.862 2.391.849 3.186.849 2.586 0 4.063-1.572 4.063-4.304V33.18c0-.222-.192-.38-.409-.38h-1.725c-.221 0-.409.158-.409.38V48.87c0 1.21-1.259 2.428-3.303 1.405l-3.741-2.195c-.133-.072-.234-.2-.234-.352V31.832c0-.15.1-.304.234-.38l13.737-7.934a.406.406 0 0 1 .409 0l13.739 7.934c.13.079.233.225.233.38V47.73a.442.442 0 0 1-.204.38l-13.768 7.934a.422.422 0 0 1-.409 0l-3.536-2.108a.369.369 0 0 0-.351 0c-.976.554-1.16.619-2.075.937-.226.079-.568.201.117.586l4.618 2.722c.435.252.929.383 1.432.38.503.004.997-.127 1.432-.38l13.767-7.934a2.912 2.912 0 0 0 1.432-2.517V31.832a2.907 2.907 0 0 0-1.432-2.517l-13.767-7.963c-.431-.247-.926-.352-1.432-.352Z" />
  <path fill="#A3A3A3" d="M195.043 32.36c-3.92 0-6.255 1.67-6.255 4.45 0 3.014 2.317 3.842 6.08 4.215 4.501.441 4.852 1.103 4.852 1.99 0 1.54-1.226 2.196-4.121 2.196-3.639 0-4.439-.91-4.706-2.722-.032-.195-.182-.352-.381-.352h-1.783a.418.418 0 0 0-.409.41c0 2.32 1.26 5.065 7.279 5.065 4.356 0 6.868-1.713 6.868-4.713 0-2.975-2.029-3.774-6.255-4.333-4.27-.566-4.677-.843-4.677-1.845 0-.826.346-1.932 3.508-1.932 2.825 0 3.869.61 4.297 2.518a.4.4 0 0 0 .38.322h1.783c.11 0 .216-.068.292-.147.075-.084.128-.179.117-.292-.276-3.285-2.463-4.83-6.869-4.83Z" />
  <path fill="#404137" d="M110.426.156a.884.884 0 0 0-.439.116.886.886 0 0 0-.439.762V23.43a.59.59 0 0 1-.599.61.607.607 0 0 1-.306-.083l-3.654-2.108a1.75 1.75 0 0 0-1.754 0L88.65 30.281a1.8 1.8 0 0 0-.877 1.552v16.863c0 .63.332 1.206.877 1.522l14.585 8.431a1.744 1.744 0 0 0 1.754 0l14.585-8.431a1.752 1.752 0 0 0 .877-1.523V6.656a1.784 1.784 0 0 0-.906-1.552l-8.681-4.86a.85.85 0 0 0-.438-.087Zm-93.827 21.05c-.278.01-.54.059-.789.204L1.224 29.84a1.75 1.75 0 0 0-.876 1.523l.029 22.63c0 .315.162.608.438.762a.85.85 0 0 0 .877 0l8.652-4.977c.548-.326.906-.894.906-1.523V37.689c0-.631.331-1.21.877-1.523l3.683-2.137c.266-.155.569-.236.877-.234.3 0 .61.075.877.234l3.683 2.137a1.747 1.747 0 0 1 .877 1.523v10.568c0 .63.361 1.2.906 1.523l8.651 4.977a.85.85 0 0 0 .878 0 .88.88 0 0 0 .438-.761l.029-22.631a1.743 1.743 0 0 0-.877-1.523L17.564 21.41c-.247-.145-.51-.193-.79-.205H16.6Zm131.065.204c-.305 0-.604.077-.877.234l-14.585 8.432a1.761 1.761 0 0 0-.878 1.522v16.863c0 .635.357 1.209.906 1.523l14.469 8.256a1.753 1.753 0 0 0 1.725.028l8.769-4.889a.887.887 0 0 0 .467-.76.862.862 0 0 0-.438-.762l-14.673-8.432a.946.946 0 0 1-.468-.79v-5.27c0-.315.195-.604.468-.76l4.559-2.636a.878.878 0 0 1 .877 0l4.56 2.635a.877.877 0 0 1 .438.761v4.157a.88.88 0 0 0 .439.761.866.866 0 0 0 .876 0l8.74-5.093a1.756 1.756 0 0 0 .877-1.523v-4.069c0-.628-.333-1.206-.877-1.522l-14.497-8.432a1.737 1.737 0 0 0-.877-.234Zm-43.611 12.589c.077 0 .166.018.234.058l4.999 2.898a.456.456 0 0 1 .234.38v5.797a.453.453 0 0 1-.234.381l-4.999 2.899a.44.44 0 0 1-.438 0l-4.998-2.899a.454.454 0 0 1-.234-.38v-5.797c0-.157.098-.301.234-.38l4.998-2.899a.382.382 0 0 1 .205-.058h-.001Z" />
  <path fill="#A3A3A3" d="M60.413 21.322c-.303 0-.604.078-.876.235L44.95 29.959a1.798 1.798 0 0 0-.877 1.552v16.863c0 .63.332 1.206.877 1.522l14.586 8.431a1.745 1.745 0 0 0 1.754 0l14.585-8.43a1.753 1.753 0 0 0 .877-1.523V31.51c0-.631-.332-1.237-.877-1.552L61.29 21.557a1.744 1.744 0 0 0-.877-.235Zm87.221 15.049c-.058 0-.123 0-.175.029l-2.806 1.64a.346.346 0 0 0-.176.292v3.22c0 .122.07.233.176.293l2.806 1.61a.304.304 0 0 0 .321 0l2.806-1.61a.348.348 0 0 0 .176-.293v-3.22a.348.348 0 0 0-.176-.293l-2.806-1.64c-.052-.03-.088-.028-.146-.028Z" />
  <path fill="#A0A0A0" d="M82.25 117h-1.638l-6.588-9.99V117h-1.638v-12.564h1.638l6.588 9.972v-9.972h1.638V117Zm7.094.162c-.924 0-1.764-.21-2.52-.63a4.58 4.58 0 0 1-1.764-1.782c-.42-.78-.63-1.68-.63-2.7 0-1.008.216-1.896.648-2.664a4.51 4.51 0 0 1 1.8-1.782c.756-.42 1.602-.63 2.538-.63.936 0 1.782.21 2.538.63.756.408 1.35.996 1.782 1.764.444.768.666 1.662.666 2.682s-.228 1.92-.684 2.7a4.634 4.634 0 0 1-1.818 1.782c-.768.42-1.62.63-2.556.63Zm0-1.44c.588 0 1.14-.138 1.656-.414.516-.276.93-.69 1.242-1.242.324-.552.486-1.224.486-2.016s-.156-1.464-.468-2.016c-.312-.552-.72-.96-1.224-1.224a3.356 3.356 0 0 0-1.638-.414c-.6 0-1.152.138-1.656.414-.492.264-.888.672-1.188 1.224-.3.552-.45 1.224-.45 2.016 0 .804.144 1.482.432 2.034.3.552.696.966 1.188 1.242a3.372 3.372 0 0 0 1.62.396Zm6.6-3.69c0-1.008.204-1.89.612-2.646a4.446 4.446 0 0 1 1.674-1.782c.72-.42 1.524-.63 2.412-.63.768 0 1.482.18 2.142.54.66.348 1.164.81 1.512 1.386v-5.22h1.656V117h-1.656v-1.854c-.324.588-.804 1.074-1.44 1.458-.636.372-1.38.558-2.232.558a4.565 4.565 0 0 1-2.394-.648c-.708-.432-1.266-1.038-1.674-1.818-.408-.78-.612-1.668-.612-2.664Zm8.352.018c0-.744-.15-1.392-.45-1.944a3.098 3.098 0 0 0-1.224-1.26 3.211 3.211 0 0 0-1.674-.45c-.612 0-1.17.144-1.674.432a3.134 3.134 0 0 0-1.206 1.26c-.3.552-.45 1.2-.45 1.944 0 .756.15 1.416.45 1.98.3.552.702.978 1.206 1.278a3.315 3.315 0 0 0 1.674.432c.612 0 1.17-.144 1.674-.432.516-.3.924-.726 1.224-1.278.3-.564.45-1.218.45-1.962Zm13.424-.36c0 .312-.018.642-.054.99h-7.884c.06.972.39 1.734.99 2.286.612.54 1.35.81 2.214.81.708 0 1.296-.162 1.764-.486.48-.336.816-.78 1.008-1.332h1.764a4.284 4.284 0 0 1-1.584 2.322c-.792.588-1.776.882-2.952.882-.936 0-1.776-.21-2.52-.63a4.492 4.492 0 0 1-1.728-1.782c-.42-.78-.63-1.68-.63-2.7 0-1.02.204-1.914.612-2.682a4.254 4.254 0 0 1 1.71-1.764c.744-.42 1.596-.63 2.556-.63.936 0 1.764.204 2.484.612.72.408 1.272.972 1.656 1.692.396.708.594 1.512.594 2.412Zm-1.692-.342c0-.624-.138-1.158-.414-1.602a2.605 2.605 0 0 0-1.134-1.026c-.468-.24-.99-.36-1.566-.36-.828 0-1.536.264-2.124.792-.576.528-.906 1.26-.99 2.196h6.228Zm4.376 5.76c-.312 0-.576-.108-.792-.324a1.077 1.077 0 0 1-.324-.792c0-.312.108-.576.324-.792.216-.216.48-.324.792-.324.3 0 .552.108.756.324.216.216.324.48.324.792 0 .312-.108.576-.324.792a.998.998 0 0 1-.756.324Zm4.139-11.574c-.312 0-.576-.108-.792-.324a1.11 1.11 0 0 1-.306-.792c0-.312.102-.576.306-.792.216-.216.48-.324.792-.324.312 0 .57.108.774.324.216.216.324.48.324.792 0 .312-.108.576-.324.792a1.019 1.019 0 0 1-.774.324Zm.81 13.608c0 .876-.222 1.518-.666 1.926-.444.408-1.092.612-1.944.612h-.954v-1.386h.684c.456 0 .774-.09.954-.27.192-.18.288-.486.288-.918v-11.97h1.638v12.006Zm6.265-1.98c-.756 0-1.434-.126-2.034-.378-.6-.264-1.074-.624-1.422-1.08a2.92 2.92 0 0 1-.576-1.602h1.692c.048.492.276.894.684 1.206.42.312.966.468 1.638.468.624 0 1.116-.138 1.476-.414.36-.276.54-.624.54-1.044 0-.432-.192-.75-.576-.954-.384-.216-.978-.426-1.782-.63a14.665 14.665 0 0 1-1.8-.576 3.418 3.418 0 0 1-1.188-.882c-.324-.396-.486-.912-.486-1.548 0-.504.15-.966.45-1.386.3-.42.726-.75 1.278-.99.552-.252 1.182-.378 1.89-.378 1.092 0 1.974.276 2.646.828.672.552 1.032 1.308 1.08 2.268h-1.638c-.036-.516-.246-.93-.63-1.242-.372-.312-.876-.468-1.512-.468-.588 0-1.056.126-1.404.378-.348.252-.522.582-.522.99 0 .324.102.594.306.81.216.204.48.372.792.504.324.12.768.258 1.332.414.708.192 1.284.384 1.728.576.444.18.822.456 1.134.828.324.372.492.858.504 1.458 0 .54-.15 1.026-.45 1.458-.3.432-.726.774-1.278 1.026-.54.24-1.164.36-1.872.36Z" />
</svg>
